X:30
T:Dusky Night,The JJo.030
S:J.Jones MS,1801,N.Shrops.
A:N Shropshire
Z:Neil Brookes
M:6/8
L:1/8
Q:3/8=120
K:F
c|f2fc2c|AGA F2c|d2c BAB|A3zzF|!
c2cd2d|ede c2c|f2fg2g|aga f2c|!
def gab|cde f2c|d2Bc2c|F3zzF|!
c2cc2c|c3zzc|f2ff2f|f3zzc|!
def gab|cde f2c|d2Bc2c|F3zz|]

